X:2
T:Arthur Darley's Jig, pt.2
T:Bruckless Shore
C:Arthur Darley
R:jig
M:6/8 % But second bar is 9/8!
L:1/8
K:D
A=ff fef|A=ff fef|A=ff Agg|Aaa A_bb|
A=ff fef|A=ff f2g|=fed ed^c|1 d2d d=c_B:|2 d2d d2e|]
fgf edc|dAA BAG|FED EDC|DA,B, CDE|
Ddd Aee|Aff Agg|fed edc|1 d2d d2e:|2 d2d dcB|]
<abc>
